X: 4109
T: Blooming Meadows, The
R: jig
M: 6/8
K: Gmajor
|:DGF G2 A|B2 d cAG|F2 D D3|DFG AGF|
D3 G2 A|BAG ABc|ded cAF|AGF G3:|
|:g2 d dB/c/d|g2 a bag|f2 d dB/c/d|dfg agf|
[1 g2 d dB/c/d|g2 a bag|fed cAF|AGF GBd:|
[2 g2e f2d|e2c dBG|fed cAF|AGF Gdc||
|:B2 d c2 d|B2 d cAG|F2 D D3|D3 AGF|
BAG AGF|BAG ABc|ded cAF|1 AGF Gdc:|2 AGF GFE||

